COLOR/action 16/16/paint-none.svg

<svg height="16" width="16" xmlns="http://www.w3.org/2000/svg"><g stroke-width="1.066667"><path d="m8 0c-4.4140727 0-8 3.5858206-8 8 0 4.414073 3.5858206 8 8 8 4.414073 0 8-3.585821 8-8 0-4.4140727-3.585821-8-8-8z" fill="#c43ac4"/><path d="m8 .00013136c-4.4140727 0-7.99983663 3.58565724-7.99983663 7.99983664 0 .090099.0116222.1773443.0145869.2667307.14227791-4.2898253 3.66127693-7.73310595 7.98524973-7.73310595 4.324078 0 7.842976 3.44337675 7.98525 7.73310595.003-.089389.01458-.1766285.01458-.2667307 0-4.4140727-3.585657-7.99983664-7.9998363-7.99983664z" fill="#fff" opacity=".3"/><path d="m.01475021 7.7332373c-.002965.089388-.0145869.1766285-.0145869.2667307 0 4.414073 3.58565729 7.999837 7.99983669 7.999837 4.414073 0 7.999837-3.585658 7.999837-7.999837 0-.090099-.01162-.1773443-.01458-.2667307-.142278 4.2898247-3.661276 7.7331057-7.9852497 7.7331057-4.3240772 0-7.84297599-3.443377-7.98524982-7.7331057z" opacity=".2"/></g><path d="m5.079299 3.7322771-1.3469899 1.3469899 2.7790136 2.7648236c.085373.08645.085373.2254728 0 .3119255l-2.7790136 2.7648229 1.3469899 1.34699 2.7648236-2.7648229c.086449-.085373.2254728-.085373.3119255 0l2.7648229 2.7648229 1.34699-1.34699-2.764823-2.7648229c-.085373-.086449-.085373-.2254727 0-.3119255l2.764823-2.7648236-1.34699-1.3469899-2.7648229 2.7648235c-.086449.085373-.2254727.085373-.3119255 0z" fill="#fff" fill-rule="evenodd" stroke-width="1.066923"/></svg>

<?xml version="1.0" encoding="UTF-8" standalone="no"?>
<svg
   xmlns:dc="http://purl.org/dc/elements/1.1/"
   xmlns:cc="http://creativecommons.org/ns#"
   xmlns:rdf="http://www.w3.org/1999/02/22-rdf-syntax-ns#"
   xmlns:svg="http://www.w3.org/2000/svg"
   xmlns="http://www.w3.org/2000/svg"
   xmlns:xlink="http://www.w3.org/1999/xlink"
   xmlns:sodipodi="http://sodipodi.sourceforge.net/DTD/sodipodi-0.dtd"
   xmlns:inkscape="http://www.inkscape.org/namespaces/inkscape"
   height="16"
   width="16"
   version="1.1"
   id="svg10"
   sodipodi:docname="paint-none.svg"
   inkscape:version="0.92.4 (5da689c313, 2019-01-14)">
  <metadata
     id="metadata16">
    <rdf:RDF>
      <cc:Work
         rdf:about="">
        <dc:format>image/svg+xml</dc:format>
        <dc:type
           rdf:resource="http://purl.org/dc/dcmitype/StillImage" />
      </cc:Work>
    </rdf:RDF>
  </metadata>
  <defs
     id="defs14">
    <linearGradient
       y2="14.99785"
       x2="16.0024"
       y1="5.99785"
       x1=".0024"
       gradientUnits="userSpaceOnUse"
       id="linearGradient924"
       xlink:href="#a"
       inkscape:collect="always" />
  </defs>
  <sodipodi:namedview
     pagecolor="#ffffff"
     bordercolor="#666666"
     borderopacity="1"
     objecttolerance="10"
     gridtolerance="10"
     guidetolerance="10"
     inkscape:pageopacity="0"
     inkscape:pageshadow="2"
     inkscape:window-width="1920"
     inkscape:window-height="1016"
     id="namedview12"
     showgrid="false"
     inkscape:zoom="14.75"
     inkscape:cx="-4.9830508"
     inkscape:cy="8"
     inkscape:window-x="0"
     inkscape:window-y="27"
     inkscape:window-maximized="1"
     inkscape:current-layer="svg10" />
  <path
     d="M 8,0 C 3.5859273,0 0,3.5858206 0,8 c 0,4.414073 3.5858206,8 8,8 4.414073,0 8,-3.585821 8,-8 C 16,3.5859273 12.414179,0 8,0 Z"
     id="path2"
     inkscape:connector-curvature="0"
     style="fill:#c43ac4;stroke-width:1.06666672;fill-opacity:1" />
  <path
     d="m 8,1.3136e-4 c -4.4140727,0 -7.99983663,3.58565724 -7.99983663,7.99983664 0,0.090099 0.0116222,0.1773443 0.0145869,0.2667307 C 0.15702818,3.9768734 3.6760272,0.53359275 8,0.53359275 c 4.324078,0 7.842976,3.44337675 7.98525,7.73310595 0.003,-0.089389 0.01458,-0.1766285 0.01458,-0.2667307 0,-4.4140727 -3.585657,-7.99983664 -7.9998363,-7.99983664 z"
     id="path4"
     inkscape:connector-curvature="0"
     style="opacity:0.3;fill:#ffffff;stroke-width:1.06666672" />
  <path
     d="m 0.01475021,7.7332373 c -0.002965,0.089388 -0.0145869,0.1766285 -0.0145869,0.2667307 0,4.414073 3.58565729,7.999837 7.99983669,7.999837 4.414073,0 7.999837,-3.585658 7.999837,-7.999837 0,-0.090099 -0.01162,-0.1773443 -0.01458,-0.2667307 -0.142278,4.2898247 -3.661276,7.7331057 -7.9852497,7.7331057 -4.3240772,0 -7.84297599,-3.443377 -7.98524982,-7.7331057 z"
     id="path6"
     inkscape:connector-curvature="0"
     style="opacity:0.2;stroke-width:1.06666672" />
  <path
     d="M 5.079299,3.7322771 3.7323091,5.079267 6.5113227,7.8440906 c 0.085373,0.08645 0.085373,0.2254728 0,0.3119255 L 3.7323091,10.920839 5.079299,12.267829 7.8441226,9.5030061 c 0.086449,-0.085373 0.2254728,-0.085373 0.3119255,0 l 2.7648229,2.7648229 1.34699,-1.34699 -2.764823,-2.7648229 c -0.085373,-0.086449 -0.085373,-0.2254727 0,-0.3119255 L 12.267861,5.079267 10.920871,3.7322771 8.1560481,6.4971006 c -0.086449,0.085373 -0.2254727,0.085373 -0.3119255,0 z"
     id="path8"
     inkscape:connector-curvature="0"
     style="fill:#ffffff;fill-rule:evenodd;stroke-width:1.06692266" />
</svg>
